X: 664
T: Jian lantan
%%abc-version 2.0
%%abcx-abcm2ps-target-version 5.9.1 (29 Sep 2008)
%%abc-creator hum2abc beta
%%abcx-conversion-date 2013/10/02 07:52:30
%%abc-edited-by Helmut Schaffrath
%%humdrum-veritas 3555363221
%%humdrum-veritas-data 3121956872
%%continueall 1
%%barnumbers 0
L: 1/8
M: 4/4
K: F
f2e dc2A c [I:setbarnb 1]| 
f2e d B A G A | 
c2d f d f c B | 
A G D FG4 | 
c2B Af2f d | 
c2c d F E D C | 
c2d f c B G A | 
GD2CD4 |]  



